X:1
T:Partition sans titre
C:Compositeur / Arrangeur
L:1/8
M:4/4
I:linebreak $
K:D
V:1 treble nm="Violon" snm="Vln."
V:1
"Bm" B2 Bc dc B2 |"A7" e2 ef gfeg |"Bm" f2 fg fede | fbbf b2 b2 |"Bm" B2 Bc dc B2 | %5
"A7" e2 ef gfeg |"Bm" f2 fg fedc |1 B4 F4 :|2 B4"D" A4 |:"D" f2 fe dBBB | A2 df"G" b2 f2 | %11
"A" a3 g e2 cB | Aceg"D" f2 d2 |"D" f2 fe dBBB | A2 df"G" b2 f2 |"A" a3 g eceg |1"D" fdec d3 e :|2 %17
"D" fdec d2 F2 |] %18
